pix/fp/view_tree_active.svg

<svg preserveAspectRatio="xMinYMid meet" viewBox="0 0 576 512" xmlns="http://www.w3.org/2000/svg"><path d="m64 32c0-17.7-14.3-32-32-32s-32 14.3-32 32v96 256c0 35.3 28.7 64 64 64h192v-64h-192v-224h192v-64h-192zm224 160c0 17.7 14.3 32 32 32h224c17.7 0 32-14.3 32-32v-128c0-17.7-14.3-32-32-32h-98.7c-8.5 0-16.6-3.4-22.6-9.4l-13.3-13.2c-6-6-14.1-9.4-22.6-9.4h-66.8c-17.7 0-32 14.3-32 32zm0 288c0 17.7 14.3 32 32 32h224c17.7 0 32-14.3 32-32v-128c0-17.7-14.3-32-32-32h-98.7c-8.5 0-16.6-3.4-22.6-9.4l-13.3-13.3c-6-6-14.1-9.4-22.6-9.4h-66.8c-17.7 0-32 14.3-32 32z"/></svg>

<svg xmlns="http://www.w3.org/2000/svg" viewBox="0 0 576 512"
     preserveAspectRatio="xMinYMid meet"><!--!Font Awesome Free 6.5.2 by @fontawesome - https://fontawesome.com License - https://fontawesome.com/license/free Copyright 2024 Fonticons, Inc.-->
    <path d="M64 32C64 14.3 49.7 0 32 0S0 14.3 0 32v96V384c0 35.3 28.7 64 64 64H256V384H64V160H256V96H64V32zM288 192c0 17.7 14.3 32 32 32H544c17.7 0 32-14.3 32-32V64c0-17.7-14.3-32-32-32H445.3c-8.5 0-16.6-3.4-22.6-9.4L409.4 9.4c-6-6-14.1-9.4-22.6-9.4H320c-17.7 0-32 14.3-32 32V192zm0 288c0 17.7 14.3 32 32 32H544c17.7 0 32-14.3 32-32V352c0-17.7-14.3-32-32-32H445.3c-8.5 0-16.6-3.4-22.6-9.4l-13.3-13.3c-6-6-14.1-9.4-22.6-9.4H320c-17.7 0-32 14.3-32 32V480z"/>
</svg>
